X: 126
P: Longways for as many as will
M: 6/4
L: 1/4
K: A
g |\
(a<A)B c2d | (e<E)F G2A |\
a |\
(b<e)f g2g | (a<c)d e>f=g |\
fdf ecA | G/A/Bb g>fg |\
(a<A)B B2A | A3- A2 |]

